packages/ffe-icons/icons/filled/sm/male.svg

<svg xmlns="http://www.w3.org/2000/svg" height="20" viewBox="0 -960 960 960" width="20"><path d="M757.999-725.901v137.625q0 11.026-7.418 18.651-7.418 7.624-18.384 7.624-10.966 0-18.581-7.508t-7.615-18.608v-80.731L550.922-514.154q17.923 26.539 28.5 56.211 10.577 29.673 10.577 61.534 0 81.298-56.362 137.853-56.363 56.555-137.385 56.555-81.021 0-137.636-56.362-56.615-56.363-56.615-137.385 0-81.021 56.436-137.636Q314.873-589.999 396-589.999q32.769 0 62.077 10.038 29.308 10.039 56.077 29.039l155.079-155.079h-81.116q-11.1 0-18.608-7.418-7.508-7.418-7.508-18.384 0-10.966 7.459-18.581t18.485-7.615h137.624q13.642 0 23.036 9.228 9.394 9.228 9.394 22.87Zm-362.283 187.9q-58.947 0-100.332 41.669-41.385 41.67-41.385 100.616 0 58.947 41.669 100.332 41.67 41.385 100.616 41.385 58.947 0 100.332-41.669 41.385-41.67 41.385-100.616 0-58.947-41.669-100.332-41.67-41.385-100.616-41.385Z"/></svg>

<svg xmlns="http://www.w3.org/2000/svg" height="20" viewBox="0 -960 960 960" width="20"><path d="M758-725.9v137.62q0 11.03-7.42 18.65-7.42 7.63-18.38 7.63-10.97 0-18.58-7.51-7.62-7.51-7.62-18.61v-80.73l-155.08 154.7q17.93 26.53 28.5 56.21Q590-428.27 590-396.41q0 81.3-56.36 137.85Q477.27-202 396.25-202q-81.02 0-137.63-56.36Q202-314.73 202-395.75q0-81.02 56.44-137.63Q314.87-590 396-590q32.77 0 62.08 10.04 29.3 10.04 56.07 29.04L669.23-706h-81.11q-11.1 0-18.61-7.42T562-731.8q0-10.97 7.46-18.58 7.46-7.62 18.48-7.62h137.63q13.64 0 23.04 9.23 9.39 9.23 9.39 22.87ZM395.72-538q-58.95 0-100.34 41.67Q254-454.66 254-395.72q0 58.95 41.67 100.34Q337.34-254 396.28-254q58.95 0 100.34-41.67Q538-337.34 538-396.28q0-58.95-41.67-100.34Q454.66-538 395.72-538Z"/></svg>
